X: 83
T:Calliope House
M:6/8
L:1/8
C:D.Richardson
N:Calliope House is a folk center in Pittsburgh.
Z:John Chambers <jc@trillian.mit.edu>
K:D % transposed from E
|:zA|"D"dAA fAA|dAA fAA|"G"Bee e2d|"A"efd BdB|!
"D"ABAA2F|A2B d2e||1 faf fed|"A"e3- e:|2 "G"faf "A7"edB|"D"d3- d!
|:fg|"D"a3 faa|eaa daa|"G"g3 fgf|"A"efe edB|!
"D"ABA A2F|A2B d2e|1 faf fed|"A"e3- e:|2"A"faf "D"edB|"D"d3- d|!
